X:1
T:Title
%%score { ( 1 4 ) | ( 2 3 ) }
L:1/8
Q:1/4=112
M:4/4
K:G
V:1 treble nm="Grand Piano"
V:4 treble 
V:2 treble 
V:3 treble 
V:1
 B4 A2 G2 | G3 F F4 | [EFc]4 [DFB]2 [CFA]2 | [CDA]3 [B,DG] [B,DG]4 | [G,CE]4 [G,DG]2 [G,DG]2 | %5
w: C.~Harold~Lowden * *|||||
 [Dc]4 [DB]2 [DB]2 | [^CA]2 E2 F2 G2 | A4 d4 | B4 z4 | G3 F F4 | [EFc]4 [DFB]2 [CFA]2 | %11
w: ||||||
 [B,EA]3 [B,E^G] [B,EG]4 | [A,EA]4 [E_B]2 [EB]2 | [DB]2 [Fe]2 [Gd]2 [DGB]2 | %14
w: |||
 [^CE]2 [CEG]2 [=CDF]2 [CFA]2 | [G,B,G]6 z2 |] %16
w: ||
V:2
 [G,DG]4 [G,CD]2 [G,B,D]2 | [A,CD]3 [A,CD][K:bass] [A,CD]4 | D,4 D,2 D,2 | G,3 G, G,4 | %4
 C,4 B,,2 B,,2 | [A,,F,]4 [G,,G,]2 [E,G,]2 | [A,,A,]2 [G,A,^C]2 [F,A,C]2 [E,G,C]2 | C8 | D2 z2 z4 | %9
 [A,CD]3 [A,CD] [A,CD]4 | D,4 D,2 ^D,2 | E,3 E, E,2 D,2 | C,4 [^C,G,]2 [C,G,]2 | %13
 [D,G,]2 [C,A,]2 [B,,B,]2 G,,2 | A,,2 A,,2 D,2 D,2 | G,,6 z2 |] %16
V:3
 x8 | x4[K:bass] x4 | x8 | x8 | x8 | x8 | x8 | [^D,G,]4 [=D,F,]4 | G,4 [G,CD]2 [G,B,D]2 | x8 | x8 | %11
 x8 | x8 | x8 | x8 | x8 |] %16
V:4
 x8 | x8 | x8 | x8 | x8 | x8 | x8 | x8 | z2 D2 A2 G2 | x8 | x8 | x8 | x8 | x8 | x8 | x8 |] %16

